svgs/photoshop_express.svg

<svg width="192" height="192" viewBox="0 0 192 192" fill="none" xmlns="http://www.w3.org/2000/svg">
<path d="M91.7294 23.769C94.088 21.4103 97.912 21.4103 100.271 23.769L168.231 91.7294C170.59 94.088 170.59 97.912 168.231 100.271L100.271 168.231C97.912 170.59 94.088 170.59 91.7294 168.231L23.769 100.271C21.4103 97.912 21.4103 94.088 23.769 91.7294L91.7294 23.769Z" stroke="black" stroke-width="12" stroke-linecap="round" stroke-linejoin="round"/>
<path d="M65 116C65 118.761 67.2386 121 70 121C72.7614 121 75 118.761 75 116H65ZM83.1613 72V67V72ZM70 94.3103C67.2386 94.3103 65 96.5489 65 99.3103C65 102.072 67.2386 104.31 70 104.31V94.3103ZM83.1613 99.3103L83.1613 94.3103H83.1613V99.3103ZM120.484 99.3103L121.775 94.4799L121.775 94.4799L120.484 99.3103ZM126.8 89.3866C129.28 90.6016 132.275 89.5762 133.49 87.0964C134.705 84.6166 133.68 81.6215 131.2 80.4065L126.8 89.3866ZM114.168 109.234C111.688 108.019 108.693 109.044 107.478 111.524C106.263 114.004 107.288 116.999 109.768 118.214L114.168 109.234ZM65 78L65 116H75L75 78L65 78ZM76 77H83.1613V67H76V77ZM70 104.31H83.1613V94.3103H70V104.31ZM83.1613 77C84.3487 77 85.5221 77.2293 86.6138 77.6724L90.3746 68.4065C88.0848 67.4771 85.634 67 83.1613 67L83.1613 77ZM86.6138 77.6724C87.7052 78.1154 88.6905 78.7621 89.5157 79.5708L96.5146 72.4282C94.7518 70.7009 92.6646 69.336 90.3746 68.4065L86.6138 77.6724ZM89.5157 79.5708C90.3408 80.3792 90.9897 81.3335 91.4306 82.3764L100.641 78.4828C99.6816 76.2122 98.2776 74.1558 96.5146 72.4282L89.5157 79.5708ZM91.4306 82.3764C91.8713 83.419 92.0968 84.5328 92.0968 85.6552L102.097 85.6552C102.097 83.1911 101.601 80.7536 100.641 78.4828L91.4306 82.3764ZM92.0968 85.6552C92.0968 86.7775 91.8713 87.8914 91.4306 88.934L100.641 92.8276C101.601 90.5568 102.097 88.1193 102.097 85.6552L92.0968 85.6552ZM91.4306 88.934C90.9897 89.9769 90.3408 90.9311 89.5157 91.7396L96.5146 98.8821C98.2776 97.1546 99.6816 95.0982 100.641 92.8276L91.4306 88.934ZM89.5157 91.7396C88.6905 92.5482 87.7052 93.195 86.6137 93.638L90.3746 102.904C92.6646 101.974 94.7518 100.609 96.5146 98.8821L89.5157 91.7396ZM86.6137 93.638C85.5221 94.0811 84.3487 94.3103 83.1613 94.3103L83.1613 104.31C85.634 104.31 88.0848 103.833 90.3746 102.904L86.6137 93.638ZM120.484 77.6207C117.493 77.6207 114.198 78.6248 111.568 80.823C108.811 83.1274 106.968 86.6076 106.968 90.9655H116.968C116.968 89.6338 117.448 88.9415 117.981 88.496C118.641 87.9442 119.604 87.6207 120.484 87.6207V77.6207ZM106.968 90.9655C106.968 96.6318 110.97 100.029 113.58 101.657C114.989 102.535 116.358 103.141 117.353 103.524C117.858 103.719 118.286 103.865 118.602 103.965C118.76 104.016 118.892 104.055 118.991 104.084C119.041 104.099 119.083 104.111 119.117 104.12C119.134 104.125 119.149 104.129 119.161 104.132C119.168 104.134 119.174 104.136 119.179 104.137C119.181 104.138 119.184 104.138 119.186 104.139C119.187 104.139 119.189 104.14 119.19 104.14C119.191 104.14 119.193 104.141 120.484 99.3103C121.775 94.4799 121.776 94.4803 121.778 94.4807C121.778 94.4808 121.78 94.4812 121.781 94.4814C121.783 94.4819 121.784 94.4824 121.786 94.4828C121.789 94.4837 121.792 94.4844 121.794 94.4851C121.799 94.4863 121.801 94.487 121.802 94.4872C121.803 94.4877 121.798 94.4861 121.785 94.4824C121.76 94.4751 121.708 94.4597 121.634 94.436C121.484 94.3883 121.247 94.3086 120.954 94.1954C120.351 93.9628 119.592 93.6201 118.871 93.1711C117.223 92.1433 116.968 91.3682 116.968 90.9655H106.968ZM120.484 87.6207C121.585 87.6207 123.09 87.9759 124.559 88.484C125.243 88.7204 125.829 88.958 126.238 89.134C126.441 89.2213 126.596 89.2918 126.694 89.337C126.743 89.3596 126.777 89.3758 126.795 89.3844C126.804 89.3887 126.809 89.3912 126.81 89.3916C126.811 89.3918 126.81 89.3915 126.808 89.3907C126.808 89.3902 126.806 89.3897 126.805 89.389C126.804 89.3887 126.804 89.3883 126.803 89.3879C126.802 89.3877 126.802 89.3874 126.802 89.3873C126.801 89.387 126.8 89.3866 129 84.8966C131.2 80.4065 131.199 80.4061 131.198 80.4058C131.198 80.4056 131.197 80.4052 131.197 80.405C131.196 80.4044 131.194 80.4039 131.193 80.4032C131.191 80.402 131.188 80.4007 131.185 80.3991C131.179 80.3961 131.171 80.3926 131.163 80.3885C131.146 80.3803 131.124 80.3699 131.098 80.3576C131.047 80.3329 130.977 80.3001 130.891 80.2605C130.72 80.1813 130.482 80.0739 130.19 79.9479C129.607 79.6972 128.789 79.3658 127.828 79.0332C126.007 78.4034 123.253 77.6207 120.484 77.6207V87.6207ZM120.484 121C123.475 121 126.77 119.996 129.4 117.798C132.157 115.493 134 112.013 134 107.655H124C124 108.987 123.52 109.679 122.987 110.125C122.327 110.677 121.364 111 120.484 111V121ZM134 107.655C134 101.989 129.997 98.5916 127.388 96.9642C125.979 96.0856 124.609 95.4801 123.615 95.0962C123.11 94.9013 122.681 94.7557 122.366 94.6553C122.207 94.605 122.076 94.5655 121.977 94.5365C121.927 94.522 121.885 94.5101 121.851 94.5007C121.834 94.4959 121.819 94.4919 121.806 94.4884C121.8 94.4867 121.794 94.4851 121.789 94.4837C121.786 94.483 121.784 94.4823 121.781 94.4816C121.78 94.4813 121.779 94.4809 121.778 94.4807C121.776 94.4803 121.775 94.4799 120.484 99.3103C119.193 104.141 119.191 104.14 119.19 104.14C119.189 104.14 119.188 104.139 119.187 104.139C119.185 104.139 119.183 104.138 119.182 104.138C119.179 104.137 119.176 104.136 119.174 104.136C119.169 104.134 119.167 104.134 119.166 104.133C119.164 104.133 119.17 104.135 119.182 104.138C119.208 104.146 119.259 104.161 119.334 104.185C119.484 104.232 119.721 104.312 120.014 104.425C120.616 104.658 121.376 105.001 122.096 105.45C123.745 106.477 124 107.252 124 107.655H134ZM120.484 111C119.382 111 117.878 110.645 116.408 110.137C115.725 109.9 115.139 109.663 114.73 109.487C114.527 109.399 114.371 109.329 114.273 109.284C114.225 109.261 114.191 109.245 114.172 109.236C114.163 109.232 114.158 109.23 114.157 109.229C114.157 109.229 114.158 109.229 114.159 109.23C114.16 109.23 114.161 109.231 114.163 109.232C114.163 109.232 114.164 109.232 114.165 109.233C114.165 109.233 114.166 109.233 114.166 109.233C114.167 109.234 114.168 109.234 111.968 113.724C109.768 118.214 109.769 118.215 109.769 118.215C109.77 118.215 109.77 118.215 109.771 118.216C109.772 118.216 109.773 118.217 109.775 118.217C109.777 118.219 109.78 118.22 109.783 118.222C109.789 118.225 109.796 118.228 109.805 118.232C109.822 118.24 109.843 118.251 109.869 118.263C109.921 118.288 109.991 118.321 110.076 118.36C110.248 118.439 110.485 118.547 110.778 118.673C111.361 118.923 112.178 119.255 113.14 119.587C114.961 120.217 117.715 121 120.484 121V111ZM75 78C75 77.4477 75.4477 77 76 77V67C69.9249 67 65 71.9249 65 78L75 78Z" fill="black"/>
</svg>

<svg xmlns="http://www.w3.org/2000/svg" width="192" height="192" fill="none" viewBox="0 0 192 192"><path stroke="#000" stroke-linecap="round" stroke-linejoin="round" stroke-width="12" d="M91.73 23.769a6.04 6.04 0 0 1 8.541 0l67.96 67.96a6.04 6.04 0 0 1 0 8.542l-67.96 67.96a6.04 6.04 0 0 1-8.542 0l-67.96-67.96a6.04 6.04 0 0 1 0-8.542l67.96-67.96Z"/><path fill="#000" d="M65 116a5 5 0 0 0 10 0zm18.161-44v-5zM70 94.31a5 5 0 0 0 0 10zm13.161 5v-5zm37.323 0 1.291-4.83zm6.316-9.923a5 5 0 0 0 4.4-8.98zm-12.632 19.847a5 5 0 1 0-4.4 8.98zM65 78v38h10V78zm11-1h7.161V67H76zm-6 27.31h13.161v-10H70zM83.161 77c1.188 0 2.361.23 3.453.672l3.76-9.266A19.2 19.2 0 0 0 83.162 67v10Zm3.453.672a9 9 0 0 1 2.902 1.899l6.999-7.143a19 19 0 0 0-6.14-4.022zm2.902 1.899a8.6 8.6 0 0 1 1.915 2.805l9.21-3.893a18.6 18.6 0 0 0-4.126-6.055zm1.915 2.805a8.4 8.4 0 0 1 .666 3.28h10c0-2.465-.496-4.902-1.456-7.173zm.666 3.28a8.4 8.4 0 0 1-.666 3.278l9.21 3.894a18.4 18.4 0 0 0 1.456-7.173zm-.666 3.278a8.6 8.6 0 0 1-1.915 2.806l6.999 7.142a18.6 18.6 0 0 0 4.126-6.054zm-1.915 2.806a9 9 0 0 1-2.902 1.898l3.76 9.266a19 19 0 0 0 6.14-4.022zm-2.902 1.898a9.2 9.2 0 0 1-3.453.672v10c2.473 0 4.924-.477 7.214-1.406zm33.87-16.017c-2.991 0-6.286 1.004-8.916 3.202-2.757 2.304-4.6 5.785-4.6 10.143h10c0-1.332.48-2.024 1.013-2.47.66-.552 1.623-.875 2.503-.875zm-13.516 13.345c0 5.666 4.002 9.063 6.612 10.691a22.5 22.5 0 0 0 3.773 1.867 22 22 0 0 0 1.764.596l.044.012.018.005.007.002.004.001c.001 0 .003.001 1.294-4.83 1.291-4.83 1.292-4.83 1.294-4.83l.003.001.005.002.008.002.008.002-.017-.005a12 12 0 0 1-.831-.287 12.6 12.6 0 0 1-2.083-1.024c-1.648-1.028-1.903-1.803-1.903-2.206zm13.516-3.345c1.101 0 2.606.355 4.075.863a25 25 0 0 1 2.135.853l.101.047.015.008-.002-.001-.003-.002-.002-.001h-.001c-.001-.001-.002-.001 2.198-4.491s2.199-4.49 2.198-4.491l-.001-.001-.004-.002-.008-.004-.022-.01-.272-.128c-.171-.08-.409-.187-.701-.313a35 35 0 0 0-2.362-.915c-1.821-.63-4.575-1.412-7.344-1.412zm0 33.379c2.991 0 6.286-1.004 8.916-3.202 2.757-2.305 4.6-5.785 4.6-10.143h-10c0 1.332-.48 2.024-1.013 2.47-.66.552-1.623.875-2.503.875zM134 107.655c0-5.666-4.003-9.063-6.612-10.69a22.6 22.6 0 0 0-3.773-1.869 22 22 0 0 0-1.638-.56l-.126-.035-.045-.013-.017-.004-.008-.002-.003-.001c-.002 0-.003-.001-1.294 4.83-1.291 4.83-1.293 4.829-1.294 4.829l-.003-.001-.005-.001-.008-.002-.008-.003.016.005.152.047a12.6 12.6 0 0 1 2.762 1.265c1.649 1.027 1.904 1.802 1.904 2.205zM120.484 111c-1.102 0-2.606-.355-4.076-.863a25 25 0 0 1-2.135-.853l-.101-.048-.015-.007.002.001.004.002.002.001h.001c.001.001.002.001-2.198 4.491s-2.199 4.491-2.199 4.491l.002.001.004.001.008.005.022.01.064.031.207.097a35 35 0 0 0 3.064 1.227c1.821.63 4.575 1.413 7.344 1.413zM75 78a1 1 0 0 1 1-1V67c-6.075 0-11 4.925-11 11z"/></svg>
